X:1
T:Title
%%score 1 2 3 4
L:1/8
M:4/2
K:F
V:1 treble nm="Part_1"
V:2 treble-8 nm="Part_2"
V:3 bass nm="Part_3"
V:4 bass nm="Part_4"
V:1
 z16 | c12 G4 | A4 A4 G6 A2 | F8 F2 F2 A2 A2 | c2 c2 GFGA B4 A4 | z cGA B2 B2 A2 G2 A4 | %6
 GGEF F2 F2 E2 D2 E4 | D4 z4 F2 D2 F4- | F2 E2 D4 CcGA B2 B2 | A2 G2 A4 G4 z4 | G2 E2 G6 F2 E4 | %11
 D4 A2 A2 B3 c A4 | z16 | z16 | z16 | z16 | z4 d6 d2 c4 | d8 z4 B4 | AGAF G3 G F2 F2 EDEC | %19
 D3 D C4 z2 c2 c2 A2 | d2 dd c2 c2 A8 | z2 G4 A2 B3 c A4 | G8 z8 | z4 z2 B2 d3 c B2 B2 | %24
 d3 c B4 z FAF c4- | cBAB G4 A8 |[M:6/2] c8 A8 d8 | c16 z8 | F4 G4 A4 B4 G8 | F16 z8 | %30
 F4 G4 A4 B4 G8 | F16 z8 | G8 E8 A8 | G16 z8 | G8 E8 A8 | G16 z8 | G4 A4 B4 c4 A8 | G8 z8 z8 | %38
 G4 A4 B4 c4 A8 | G8 z8 z8 | z24 | z24 | F4 G4 A4 B4 G8 |[M:4/2] F8 A2 B2 c4- | c2 AF G4 F8 | %45
 B2 c2 d6 BG A4 | G8 E2 F2 G4- | G2 EC D4 C2 G2 G2 A2 | B8 z8 | z16 | z2 A2 A2 B2 c8 | %51
 z2 G2 G2 A2 B4 z4 | GABc ABcd B2 GG A4 | G8 G2 A2 G4 | z8 z4 G2 G2 | A2 cc =B4 c4 A2 A2 | %56
 A3 A A2 GE ^F2 G4 F2 | G8 z8 | z4 G2 G2 ABcc =B4 | c4 z4 z8 | z8 B2 B2 B3 B | B2 AF G4 A8 | %62
[M:6/2] c8 A8 d8 | c16 z8 | F4 G4 A4 B4 G8 | F16 z8 | F4 G4 A4 B4 G8 | F16 z8 | G8 E8 A8 | G16 z8 | %70
 G8 E8 A8 | G16 z8 | G4 A4 B4 c4 A8 | G8 z8 z8 | G4 A4 B4 c4 A8 | G8 z8 z8 | z24 | z24 | %78
 F4 G4 A4 B4 G8 |[M:4/2] A8 c4- cdBc | ABGA FGEF DEFG ABcA | d4 c4 B8- | B4 A2 G2 A8 |] %83
V:2
 c12 G4 | A4 A4 G6 A2 | F8 z8 | z8 z8 | z8 z4 z fcd | e4 d4 z8 | z4 z dAB ^c2 d2 d2 c2 | %7
 d4 d2 B2 d6 c2 | =B2 c4 B2 c4 z gde | ^f2 g2 g2 f2 g4 e2 c2 | e6 d2 ^c2 d4 c2 | d8 z8 | z16 | %13
 z16 | z16 | z16 | z4 f6 B2 B2 A2 | B4 z2 B2 AGAF G3 G | F4 z2 c2 AGAF G3 G | %19
 G2 g2 g2 e2 g2 aa gafg | ec f4 e2 f8 | z16 | z2 d4 e2 f3 g e4 | d8 z2 B2 d3 c | %24
 B2 B2 d2 B2 c4 z ccd | ed/e/ f4 e2 f8 |[M:6/2] z24 | c8 A8 d8 | c16 z8 | z24 | z24 | %31
 c4 d4 e4 f4 d8 | c16 z8 | z24 | z24 | c4 d4 e4 f4 d8 | c8 z8 z8 | z24 | z24 | d4 e4 f4 g4 e8 | %40
 d8 z8 z8 | d4 e4 f4 g4 e8 | d8 z8 z8 |[M:4/2] z16 | z16 | z16 | z16 | z16 | z8 defg efga | %49
 f2 dd e4 d4 z4 | z16 | z8 GABc ABcd | B2 GG A4 G4 z4 | z4 e2 d2 e8 | z4 c2 c2 deff e4 | f4 z4 z8 | %56
 c2 c2 c3 c c2 BG A4 | G8 z4 c2 c2 | deff e4 f4 z4 | z4 d2 d2 efgg ^f4 | g4 g2 g2 g3 g g2 fd | %61
 e2 f4 e2 f8 |[M:6/2] z24 | c8 A8 d8 | c16 z8 | z24 | z24 | c4 d4 e4 f4 d8 | c16 z8 | z24 | z24 | %71
 c4 d4 e4 f4 d8 | c8 z8 z8 | z24 | z24 | d4 e4 f4 g4 e8 | d8 z8 z8 | d4 e4 f4 g4 e8 | d8 z8 z8 | %79
[M:4/2] z4 c4- cdBc ABGA | F3 F F4 F8 | DEFG ABcA d2 B2 d4 | c16 |] %83
V:3
 z16 | z16 | z16 | z4 B,,2 B,,2 D,2 D,2 F,2 F,2 | C,B,,C,D, _E,4 B,,B,F,G, A,4 | %5
 G,4 z G,D,E, ^F,2 G,2 G,2 F,2 | G,4 z4 z8 | z4 B,,2 G,,2 B,,6 A,,2 | G,,8 C,4 z4 | %9
 z8 z4 C,2 A,,2 | C,6 B,,2 A,,8 | D,8 z4 D,2 D,2 | _E,3 F, D,2 G,2 E,2 E,2 F,3 E, | %13
 D,2 C,/D,/E,/C,/ D,4 C,2 C2 A,2 A,2 | B,3 A, G,2 F,/G,/A,/F,/ G,4 F,2 A,2 | %15
 ^F,2 F,2 G,3 =F, E,2 D,/E,/F,/D,/ E,4 | D,4 B,,6 D,2 F,4 | B,,8 z8 | z2 F,2 E,D,E,C, D,3 D, C,4 | %19
 z4 z2 C,2 C,2 A,,2 C,2 D,D, | C,2 B,,2 C,4 F,,8 | z2 C,4 A,,2 G,,2 G,,2 D,4 | G,,8 z8 | %23
 z2 B,,2 D,3 C, B,,8 | z4 z B,,D,B,, F,4 F,F,,A,,F,, | C,8 F,,8 |[M:6/2] F,8 F,8 B,,8 | F,16 z8 | %28
 z24 | F,4 G,4 A,4 B,4 G,8 | F,16 z8 | z24 | z24 | G,8 E,8 A,8 | G,16 z8 | z24 | z24 | %37
 G,4 A,4 B,4 C4 A,8 | G,8 z8 z8 | z24 | D,4 E,4 F,4 G,4 E,8 | D,8 z8 z8 | D,4 E,4 F,4 G,4 C,8 | %43
[M:4/2] F,,8 z8 | z16 | z16 | z16 | z16 | z2 G,,2 G,,2 A,,2 B,,4 z4 | %49
 D,E,F,G, E,F,G,A, F,2 D,D, E,4 | D,8 z2 A,,2 A,,2 B,,2 | C,8 z8 | z16 | z4 C,2 B,,2 C,4 C,2 C,2 | %54
 D,E,F,F, E,4 F,4 z4 | z8 z4 F,2 F,2 | F,3 F, F,2 _E,C, D,8 | G,,4 C,2 C,2 D,E,F,F, E,4 | %58
 F,4 z4 z4 G,,2 G,,2 | A,,B,,C,C, =B,,4 C,4 z4 | z4 _E,2 E,2 E,3 E, E,2 D,B,, | C,8 F,,8 | %62
[M:6/2] F,8 F,8 B,,8 | F,16 z8 | z24 | F,4 G,4 A,4 B,4 G,8 | F,16 z8 | z24 | z24 | G,8 E,8 A,8 | %70
 G,16 z8 | z24 | z24 | G,4 A,4 B,4 C4 A,8 | G,16 z8 | z24 | D,4 E,4 F,4 G,4 E,8 | D,16 z8 | %78
 D,4 E,4 F,4 G,4 C,8 |[M:4/2] F,,8 z4 F,4- | F,G,E,F, D,E,C,D, B,,4 A,,4 | B,,4 F,4 B,,8 | F,,16 |] %83
V:4
 F,4 E,2 D,2 C,6 B,,2 | A,,4 G,,2 F,,2 C,8 | F,,8 C,8 | F,4 B,,2 B,,2 D,2 D,2 F,2 F,2 | %4
 C,B,,C,D, _E,4 B,,4 F,,4 | C,4 G,,4 D,8 | G,,4 D,4 A,,8 | D,4 B,,2 G,,2 B,,6 A,,2 | %8
 G,,8 C,4 G,,4 | D,8 G,,4 C,2 A,,2 | C,6 B,,2 A,,8 | D,8 G,,4 D,2 D,2 | %12
 _E,2 E,2 D,2 G,,2 C,4 F,,4 | G,,8 C,4 F,4 | B,,4 C,8 F,,2 F,,2 | D,,4 G,,4 A,,8 | %16
 D,4 B,,6 D,2 F,4 | B,,8 A,G,A,F, G,2 G,2 | F,2 F,2 E,D,E,C, D,2 D,2 C,4 | %19
 G,4 C,2 C,2 C,2 A,,2 C,2 D,D, | C,2 B,,2 C,4 F,,8 | z2 C,4 A,,2 G,,4 D,4 | G,,8 D,4 A,,4 | %23
 D,2 B,,2 D,3 C, B,,8 | B,4 B,B,,D,B,, F,4 F,F,,A,,F,, | C,8 F,,8 |[M:6/2] F,8 F,8 B,,8 | %27
 F,16 B,,8 | F,16 C,8 | F,,16 C,8 | F,,16 C,8 | F,8 C,8 G,8 | C,8 C,8 F,,8 | C,16 F,,8 | C,16 F,8 | %35
 C,16 G,8 | C,8 G,,8 D,8 | G,,16 D,8 | G,,16 D,8 | G,8 D,8 A,8 | D,16 A,,8 | D,16 A,8 | %42
 D,4 E,4 F,4 G,4 C,8 |[M:4/2] F,,8 F,4 A,2 B,2 | C4- C4 F,8 | B,,4 B,2 C2 D4 D,4 | %46
 G,4 E,2 F,2 G,4 E,,2 F,,2 | G,,8 C,2 C,2 C,4 | G,2 G,,2 G,,2 A,,2 B,,4 A,,4 | D,4 A,,4 D,4 A,,4 | %50
 D,,8 A,2 A,,2 A,,2 B,,2 | C,8 G,,4 D,4 | G,,4 D,4 G,,4 D,4 | G,4 C,2 B,,2 C,4 C,2 C,2 | %54
 D,E, F,2 E,4 F,4 C,4 | F,4 G,4 C,4 F,2 F,2 | F,3 F, F,2 _E,C, D,8 | G,,4 C,2 C,2 D,E,F,F, E,4 | %58
 F,4 C,4 F,4 G,,2 G,,2 | A,,B,,C,C, =B,,4 C,4 D,4 | G,,4 _E,2 E,2 E,3 E, E,2 D,B,, | C,8 F,,8 | %62
[M:6/2] F,8 F,8 B,,8 | F,16 B,,8 | F,16 C,8 | F,,16 C,8 | F,16 C,8 | F,8 C,8 G,8 | C,8 C,8 F,,8 | %69
 C,16 F,,8 | C,16 F,8 | C,16 G,8 | C,8 G,,8 D,8 | G,,16 D,8 | G,,16 D,8 | G,8 D,8 A,8 | D,16 A,,8 | %77
 D,16 A,8 | D,4 E,4 F,4 G,4 C,8 |[M:4/2] F,,12 F,4 | F,G,E,F, D,E,C,D, B,,4 A,,4 | B,,4 F,4 B,,8 | %82
 F,,16 |] %83

